!!!!SEGMENT: pl-cz--ii-249--002_mine-jacques-claude-adolphe--o-salutaris-hostia.krn
!!!cenid: 18xx:1150
!!!COM: Miné, Jacques-Claude-Adolphe
!!!COM-rismid: pe30008345
!!!CDT: 1796/11/04-1854/10/30
!!!CNT: French
!!!OTL: O salutaris hostia
!!!PDT:
!!!AGN: Sacred
!!!SMS-siglum: PL-CZ
!!!SMS-shelfmark: II-249
!!!SMS-shelfwork: 002 W
!!!SMS-variant:
!!!SMS-altvar:
!!!NIFC-rismid: 300001495
!!!URL-scan: http://repozytorium.nifc.pl/skany/pl-cz-nut--ii-249
!!!ONB-nifc:
!!!AIN: 1 bass 1 flt 1 organ 1 viola 2 violn
!!!key: E-
**kern	**kern	**dynam	**kern	**dynam	**kern	**dynam	**kern	**dynam	**kern	**text	**dynam	**kern	**dynam
*part6	*part6	*part6	*part5	*part5	*part4	*part4	*part3	*part3	*part2	*part2	*part2	*part1	*part1
*staff7	*staff6	*	*staff5	*	*staff4	*	*staff3	*	*staff2	*staff2	*	*staff1	*
*I"Organo	*	*	*I"Viola	*	*I"Violino II	*	*I"Violino I	*	*I"Solo Basso Voce	*	*	*I"Flauto	*
*I'org	*	*	*I'vla	*	*I'vn II	*	*I'vn I	*	*I'b	*	*	*I'fl	*
*Iorgan	*	*	*Iviola	*	*Ivioln	*	*Ivioln	*	*Ibass	*	*	*Iflt	*
*ICklav	*	*	*ICstr	*	*ICstr	*	*ICstr	*	*ICvox	*	*	*ICww	*
*clefF4	*clefG2	*	*clefC3	*	*clefG2	*	*clefG2	*	*clefF4	*	*	*clefG2	*
*k[b-e-a-]	*k[b-e-a-]	*	*k[b-e-a-]	*	*k[b-e-a-]	*	*k[b-e-a-]	*	*k[b-e-a-]	*	*	*k[b-e-a-]	*
*E-:	*E-:	*	*E-:	*	*E-:	*	*E-:	*	*E-:	*	*	*E-:	*
*M4/4	*M4/4	*	*M4/4	*	*M4/4	*	*M4/4	*	*M4/4	*	*	*M4/4	*
*met(c)	*met(c)	*	*met(c)	*	*met(c)	*	*met(c)	*	*met(c)	*	*	*met(c)	*
=1	=1	=1	=1	=1	=1	=1	=1	=1	=1	=1	=1	=1	=1
!	!	!	!	!	!	!	!	!	!LO:TX:a:t=O Salutaris	!	!	!LO:TX:a:t=1	!
!	!	!	!LO:TX:a:t=O Salutaris	!	!LO:TX:a:t=O Salutaris.	!	!LO:TX:a:t=O Salutaris.	!	!LO:TX:a:t=Maestoso.	!	!	!LO:TX:a:t=Maestoso	!
!	!	!	!LO:TX:a:t=Maestoso	!	!LO:TX:a:t=Maestoso	!LO:DY:b	!LO:TX:a:t=Maestoso	!LO:DY:b	!LO:TX:a:t=12	!	!	!LO:TX:a:t=O Salutaris	!
(2EE-/ (2E-	(2e-/	mf	(2E-/	.	(2e-/	mf	(2e-/	mf	1r	.	.	1r	.
4.GG/) 4.G)	4.g/)	.	4.G/)	.	4.g/)	.	4.g/)	.	.	.	.	.	.
8EE-/ 8E-	8e-/	.	8E-/	.	8e-/	.	8e-/	.	.	.	.	.	.
=2	=2	=2	=2	=2	=2	=2	=2	=2	=2	=2	=2	=2	=2
*^	*	*	*	*	*	*	*	*	*	*	*	*	*
4BB-/	1BB-	2.b-\	.	(4B-\	.	4B-/	.	2.b-\	.	1r	.	.	2r	.
4B-/	.	.	.	4e-\)	.	4B-/ 4g	.	.	.	.	.	.	.	.
4G/	.	.	.	4e-\	.	4B-/ 4g	.	.	.	.	.	.	4r	.
4E-/	.	4b-\	.	4e-\	.	4B-/ 4g	.	4b-\	.	.	.	.	4bb-\	.
*v	*v	*	*	*	*	*	*	*	*	*	*	*	*	*
=3	=3	=3	=3	=3	=3	=3	=3	=3	=3	=3	=3	=3	=3
*	*^	*	*	*	*	*	*	*	*	*	*	*	*
1BB- 1A-	(2b-/	1d	.	(2f\	.	(>1B- 1a-	.	2d/ 2b-	.	1r	.	.	(2bb-\	.
.	4a-/	.	.	2d\)	.	.	.	(4a-/	.	.	.	.	4aa-\	.
.	4f/)	.	.	.	.	.	.	4f/)	.	.	.	.	4ff\)	.
*	*v	*v	*	*	*	*	*	*	*	*	*	*	*	*
=4	=4	=4	=4	=4	=4	=4	=4	=4	=4	=4	=4	=4	=4
4C\ 4G	4c/ 4e-	.	4c\	.	4g/)	.	4e-/	.	1r	.	.	4ee-\	.
4E-\	4r	.	(4E-/	.	(4e-/	.	4r	.	.	.	.	4r	.
4G\	2r	.	4G/	.	4g/	.	2r	.	.	.	.	2r	.
4E-\	.	.	4E-/)	.	4e-/)	.	.	.	.	.	.	.	.
=5	=5	=5	=5	=5	=5	=5	=5	=5	=5	=5	=5	=5	=5
!	!	!	!	!	!	!	!	!	!	!	!	!LO:TX:a:t=1	!
(2C/	(2c/	.	(2C/	.	(2c/	.	2c/	.	1r	.	.	1r	.
4.E-/)	4.e-/)	.	4.E-/)	.	4.e-/)	.	4.e-/	.	.	.	.	.	.
8C/	8c/	.	8C/	.	8c/	.	8c/	.	.	.	.	.	.
!	!	!	!LO:LB:g=original	!	!LO:LB:g=original	!	!LO:LB:g=original	!	!	!	!	!	!
=6	=6	=6	=6	=6	=6	=6	=6	=6	=6	=6	=6	=6	=6
2AA-\ 2A-	(2c/ 2e-	.	(2A-/	.	(2c/ 2e-	.	(2a-/	.	1r	.	.	(2aa-\	.
2GG\ 2G	2B-/) 2e-	.	2G/)	.	2B-/) 2e-	.	2cc\)	.	.	.	.	2ccc\)	.
=7	=7	=7	=7	=7	=7	=7	=7	=7	=7	=7	=7	=7	=7
2FF\ 2F	[2.B-/ 2.d	.	(2F/	.	(>[>2.B-/ 2.d	.	(2.a-/	.	1r	.	.	(2.aa-\	.
2EE-/ 2E-	.	.	2E-/)	.	.	.	.	.	.	.	.	.	.
.	4B-/] 4e-	.	.	.	4B-/]) 4e-	.	4g/)	.	.	.	.	4ee-\)	.
=8	=8	=8	=8	=8	=8	=8	=8	=8	=8	=8	=8	=8	=8
4BBB-/ 4BB-	2B-/ 2d	.	4D/	.	4B-/ 4f	.	2f/	.	1r	.	.	2ff\	.
4BBB-/ 4BB-	.	.	4B-/	.	4r	.	.	.	.	.	.	.	.
4BBB-/ 4BB-	4r	.	4B-/	.	4r	.	4r	.	.	.	.	4r	.
4BBB-/ 4BB-	4d/ 4f	.	4B-/	.	4d/	.	4f/	.	.	.	.	4dd\	.
!	!	!	!	!	!	!	!	!	!	!	!	!LO:LB:g=original	!
=9	=9	=9	=9	=9	=9	=9	=9	=9	=9	=9	=9	=9	=9
*rep	*	*	*	*	*	*	*	*	*	*	*	*	*
4BBB-/ 4BB-	(2e-/ 2g	.	(2B-/	.	2e-/	.	(2g/	.	1r	.	.	2ee-\	.
4BBB-/ 4BB-	.	.	.	.	.	.	.	.	.	.	.	.	.
4BBB-/ 4BB-	2c/ 2an	.	2c/)	.	(4f/	.	2f/) 2an	.	.	.	.	(4ff\	.
4BBB-/ 4BB-	.	.	.	.	4e-/)	.	.	.	.	.	.	4ee-\)	.
*Xrep	*	*	*	*	*	*	*	*	*	*	*	*	*
!LO:LB:g=original	!LO:LB:g=original	!	!	!	!	!	!	!	!	!	!	!	!
=10	=10	=10	=10	=10	=10	=10	=10	=10	=10	=10	=10	=10	=10
*rep	*	*	*	*	*	*	*	*	*	*	*	*	*
4BBB-/ 4BB-	2d/) 2b-	.	(2d\	.	2f/	.	2d/ 2b-	.	1r	.	.	2dd\	.
4BBB-/ 4BB-	.	.	.	.	.	.	.	.	.	.	.	.	.
4BBB-/ 4BB-	4r	.	4B-/)	.	4r	.	4r	.	.	.	.	4r	.
4BBB-/ 4BB-	4d/ 4f	.	4B-/	.	4d/	.	4f/	.	.	.	.	4dd\	.
*Xrep	*	*	*	*	*	*	*	*	*	*	*	*	*
=11	=11	=11	=11	=11	=11	=11	=11	=11	=11	=11	=11	=11	=11
*rep	*	*	*	*	*	*	*	*	*	*	*	*	*
4BBB-/ 4BB-	2e-/ 2g	.	(2B-\	.	2e-/	.	2g/	.	1r	.	.	2ee-\	.
4BBB-/ 4BB-	.	.	.	.	.	.	.	.	.	.	.	.	.
4BBB-/ 4BB-	(2c/ 2an	.	(2c\)	.	(4f/	.	2e-/ 2an	.	.	.	.	(4ff\	.
4BBB-/ 4BB-	.	.	.	.	4e-/)	.	.	.	.	.	.	4ee-\)	.
*Xrep	*	*	*	*	*	*	*	*	*	*	*	*	*
!	!	!	!	!	!LO:LB:g=original	!	!	!	!	!	!	!	!
=12	=12	=12	=12	=12	=12	=12	=12	=12	=12	=12	=12	=12	=12
*8ba	*	*	*	*	*	*	*	*	*	*	*	*	*
4BBB-/	4d/) 4b-	.	4B-\)	.	4d/	.	4d/ 4b-	.	1r	.	.	4dd\	.
4r	4r	.	4r	.	4r	.	4r	.	.	.	.	4r	.
4BBB-/	4B-/ 4b-	.	4B-\	.	4B-/	.	4b-\	.	.	.	.	2r	.
4BBB-/	4B-/ 4b-	.	4B-\	.	4B-/	.	4b-\	.	.	.	.	.	.
*X8ba	*	*	*	*	*	*	*	*	*	*	*	*	*
!	!	!	!LO:LB:g=original	!	!	!	!LO:LB:g=original	!	!	!	!	!	!
=13	=13	=13	=13	=13	=13	=13	=13	=13	=13	=13	=13	=13	=13
!	!	!	!	!	!	!	!	!	!	!	!	!LO:TX:a:t=1	!
2BBB-/ 2BB-	2B-/ 2b-	.	2B-/	.	2B-/	.	2b-\	.	1r;	.	.	1r	.
2r	2r	.	2r	.	2r	.	2r	.	.	.	.	.	.
=14||	=14||	=14||	=14||	=14||	=14	=14	=14||	=14||	=14|	=14|	=14|	=14|	=14|
!	!	!	!	!	!	!	!	!LO:DY:b	!	!	!LO:DY:b	!LO:TX:a:t=Solo	!
!	!	!	!	!	!LO:TX:t=P:problem=brak podwójnej kreski	!	!	!	!	!	!	!LO:TX:a:t=1.	!
!	!LO:TX:a:t=Solo	!	!LO:TX:a:t=Solo	!	!LO:TX:a:t=Solo	!	!LO:TX:a:t=Solo	!	!LO:TX:t=P:problem=brak podwójnej kreski	!	!	!LO:TX:t=P:problem=brak podwójnej kreski	!
1EE- 1E-	4r	.	4r	p	4r	p	4r	p	2E-\	O	p	1r	.
.	4G/ 4e-	.	4E-/ 4G	.	4B-/ 4g	.	4e-/	.	.	.	.	.	.
.	4G/ 4e-	.	4E-/ 4G	.	4B-/ 4g	.	4e-/	.	4.G\	Sa-	.	.	.
.	4G/ 4e-	.	4E-/ 4G	.	4B-/ 4g	.	4e-/	.	.	.	.	.	.
.	.	.	.	.	.	.	.	.	8E-\	-lu-	.	.	.
=15	=15	=15	=15	=15	=15	=15	=15	=15	=15	=15	=15	=15	=15
4EE-/ 4E-	4r	.	4E-/	.	4B-/ 4g	.	4e-/	.	2B-\	-ta-	.	4r	.
(4G\	(4e-/	.	(4G/	.	(4e-/	.	(4g/	.	.	.	.	4eee-\	.
4F\	4d/	.	4F/	.	4d/	.	4f/	.	4B-\	-ris	.	(4ddd\	.
4E-\)	4e-/)	.	4E-/)	.	4e-/)	.	4e-/)	.	4r	.	.	4eee-\)	.
=16	=16	=16	=16	=16	=16	=16	=16	=16	=16	=16	=16	=16	=16
2D\	2f/	.	4D/	.	4f/	.	4d/	.	(2B-\	hos-	.	4fff\	.
.	.	.	4D/	.	4f/	.	4d/	.	.	.	.	4r	.
2BBB-/ 2BB-	4r	.	2B-/	.	4r	.	4r	.	4.A-\)	.	.	2r	.
.	4d/	.	.	.	4B-/	.	4d/	.	.	.	.	.	.
.	.	.	.	.	.	.	.	.	8F\	-ti-	.	.	.
!	!	!	!	!	!	!	!	!	!	!	!	!LO:LB:g=original	!
=17	=17	=17	=17	=17	=17	=17	=17	=17	=17	=17	=17	=17	=17
1CC 1C	4r	.	2c\	.	4c/	.	4r	.	2E-\	-a	.	4r	.
.	(4G/	.	.	.	(4G/	.	(4G/	.	.	.	.	(4g/	.
.	4c/	.	2C/	.	4c/	.	4c/	.	4r	.	.	4cc\	.
.	4e-/)	.	.	.	4e-/)	.	4e-/)	.	4E-\	quae	.	4ee-\)	.
!	!	!	!	!	!LO:LB:g=original	!	!	!	!LO:LB:g=original	!	!	!	!
=18	=18	=18	=18	=18	=18	=18	=18	=18	=18	=18	=18	=18	=18
2AA-/	4r	.	2c\	.	(2e-/	.	4r	.	2A-\	cae-	.	4aa-\	.
.	(4e-/ 4cc	.	.	.	.	.	(4cc\	.	.	.	.	(4eee-\	.
2A-\	4d/ 4b-	.	4B-/	.	4d/	.	4b-\	.	(4B-\	-li	.	4ddd\	.
.	4c/) 4a-	.	4A-/	.	4c/)	.	4a-\)	.	4c\)	.	.	4ccc\)	.
!LO:LB:g=original	!LO:LB:g=original	!	!LO:LB:g=original	!	!	!	!LO:LB:g=original	!	!	!	!	!	!
=19	=19	=19	=19	=19	=19	=19	=19	=19	=19	=19	=19	=19	=19
*	*^	*	*	*	*	*	*	*	*	*	*	*	*
2E-\	2g/	(4B-\	.	(4G/	.	(4B-/	.	(2g/	.	2B-\	pan-	.	(4bb-\	.
.	.	4e-\)	.	4B-/)	.	4e-/)	.	.	.	.	.	.	4ee-\)	.
2EE-/	2e-/	(4G\	.	(4G/	.	(4B-/	.	2f/)	.	4E-\	-dis	.	(4gg\	.
.	.	4B-\)	.	4B-/)	.	4e-/)	.	.	.	4r	.	.	4ee-\)	.
*	*v	*v	*	*	*	*	*	*	*	*	*	*	*	*
=20	=20	=20	=20	=20	=20	=20	=20	=20	=20	=20	=20	=20	=20
*	*^	*	*	*	*	*	*	*	*	*	*	*	*
2DD\ 2D	2f/	(4A-\	.	(4A-/	.	(4B-/	.	(2f/	.	2.A-\	ho-	.	(2aa-\	.
.	.	4B-\)	.	4B-/)	.	4d/)	.	.	.	.	.	.	.	.
2EE-\ 2E-	2e-/	(4G\	.	(4B-/	.	(4g/	.	2e-/)	.	.	.	.	2gg\)	.
.	.	4B-\)	.	4G/)	.	4e-/)	.	.	.	4G\	-sti-	.	.	.
*	*v	*v	*	*	*	*	*	*	*	*	*	*	*	*
=21	=21	=21	=21	=21	=21	=21	=21	=21	=21	=21	=21	=21	=21
!	!LO:TX:t=P:problem=dźwięk F w dolnej pięciolinii	!	!	!	!	!	!	!	!	!	!	!	!
4BB-\	4d 4F</	.	4B-/	.	4d/	.	4d/	.	2F\	-am	.	4ff\	.
4BB-\	4r	.	4B-/	.	4B-/	.	4r	.	.	.	.	4r	.
4D\	2r	.	4D/	.	4d/	.	2r	.	2r	.	.	2r	.
4F\	.	.	4F/	.	4f/	.	.	.	.	.	.	.	.
=22:|!	=22:|!	=22:|!	=22:|!	=22:|!	=22:|!	=22:|!	=22:|!	=22:|!	=22	=22	=22	=22:|!	=22:|!
!	!	!	!	!	!	!	!	!	!	!	!	!LO:TX:t=P:problem=t. 22-42 są powtórką z uwagi na głos	!
!	!	!	!	!	!	!	!	!	!LO:TX:t=P:problem=brak znaku repetycji	!	!	!	!
2EE-/yy 2E-yy	(2e-/yy	.	(2E-/yy	.	(2e-/yy	.	(2e-/yy	.	1r	.	.	1ryy	.
4.GG/yy 4.Gyy	4.g/)yy	.	4.G/)yy	.	4.g/)yy	.	4.g/)yy	.	.	.	.	.	.
8EE-/yy 8E-yy	[8e-/yy	.	[8E-/yy	.	[8e-/yy	.	[8e-/yy	.	.	.	.	.	.
=23	=23	=23	=23	=23	=23	=23	=23	=23	=23	=23	=23	=23	=23
*^	*	*	*	*	*	*	*	*	*	*	*	*	*
4BB-/yy	1BB-yy	2.b-\]yy	.	(4B-\]yy	.	4B-/]yy	.	2.b-\]yy	.	1r	.	.	2ryy	.
4B-\yy	.	.	.	4e-\)yy	.	4B-/yy 4gyy	.	.	.	.	.	.	.	.
4G\yy	.	.	.	4e-\yy	.	4B-/yy 4gyy	.	.	.	.	.	.	4ryy	.
4E-\yy	.	[4b-\yy	.	[4e-\yy	.	4B-/yy 4gyy	.	4b-\yy	.	.	.	.	[4bb-\yy	.
*v	*v	*	*	*	*	*	*	*	*	*	*	*	*	*
=24	=24	=24	=24	=24	=24	=24	=24	=24	=24	=24	=24	=24	=24
*	*^	*	*	*	*	*	*	*	*	*	*	*	*
1BB-yy 1A-yy	(2b-\]yy	1dyy	.	(2f\]yy	.	(1B-yy 1a-yy	.	2d/yy 2b-yy	.	1r	.	.	(2bb-\]yy	.
.	4a-/yy	.	.	[2d\)yy	.	.	.	((4a-/yy	.	.	.	.	4aa-\yy	.
.	4f/)yy	.	.	.	.	.	.	[4f/))yy	.	.	.	.	[4ff\)yy	.
*	*v	*v	*	*	*	*	*	*	*	*	*	*	*	*
=25	=25	=25	=25	=25	=25	=25	=25	=25	=25	=25	=25	=25	=25
4C\yy 4Gyy	4c/yy 4e-yy	.	4c\]yy	.	4g/)yy	.	4e-/]yy	.	1r	.	.	4ee-\yy]	.
4E-\yy	4ryy	.	(4E-/yy	.	(4e-/yy	.	4ryy	.	.	.	.	4ryy	.
4G\yy	2ryy	.	4G/yy	.	4g/yy	.	2ryy	.	.	.	.	2ryy	.
[4E-\yy	.	.	[4E-/)yy	.	[4e-/)yy	.	.	.	.	.	.	.	.
=26	=26	=26	=26	=26	=26	=26	=26	=26	=26	=26	=26	=26	=26
!	!	!	!	!	!	!	!	!	!	!	!	!LO:TX:a:t=1	!
(2C/]yy	(2c/yy	.	(2C/]yy	.	(2c/]yy	.	2c/yy	.	1r	.	.	1ryy	.
4.E-/)yy	4.e-/)yy	.	4.E-/)yy	.	4.e-/)yy	.	4.e-/yy	.	.	.	.	.	.
8C/yy	8c/yy	.	[8C/yy	.	8c/yy	.	[8c/yy	.	.	.	.	.	.
=27	=27	=27	=27	=27	=27	=27	=27	=27	=27	=27	=27	=27	=27
2AA-\yy 2A-yy	(2c/yy 2e-yy	.	(2A-/]yy	.	(2c/yy 2e-yy	.	(2a-/]yy	.	1r	.	.	(2aa-\yy	.
2GG\yy 2Gyy	2B-/)yy 2e-yy	.	[2G/)yy	.	2B-/)yy 2e-yy	.	[2cc\)yy	.	.	.	.	[2ccc\)yy	.
=28	=28	=28	=28	=28	=28	=28	=28	=28	=28	=28	=28	=28	=28
2FF\yy 2Fyy	[2.B-/yy 2.dyy	.	(2F/]yy	.	([2.B-/yy 2.dyy	.	(2.a-/]yy	.	1r	.	.	(2.aa-\]yy	.
2EE-/yy 2E-yy	.	.	[2E-/)yy	.	.	.	.	.	.	.	.	.	.
.	4B-/]yy 4e-yy	.	.	.	4B-/])yy 4e-yy	.	[4g/)yy	.	.	.	.	[4ee-\)yy	.
=29	=29	=29	=29	=29	=29	=29	=29	=29	=29	=29	=29	=29	=29
4BBB-/yy 4BB-yy	2B-/yy 2dyy	.	4D/]yy	.	4B-/yy 4fyy	.	2f/]yy	.	1r	.	.	2ff\]	.
4BBB-/yy 4BB-yy	.	.	4B-/yy	.	4ryy	.	.	.	.	.	.	.	.
4BBB-/yy 4BB-yy	4ryy	.	4B-/yy	.	4ryy	.	4ryy	.	.	.	.	4ryy	.
4BBB-/yy 4BB-yy	4d/yy 4fyy	.	[4B-/yy	.	[4d/yy	.	[4f/yy	.	.	.	.	[4dd\yy	.
=30	=30	=30	=30	=30	=30	=30	=30	=30	=30	=30	=30	=30	=30
*rep	*	*	*	*	*	*	*	*	*	*	*	*	*
4BBB-/yy 4BB-yy	(2e-/yy 2gyy	.	(2B-/]yy	.	2e-/]yy	.	(2g/]yy	.	1r	.	.	2ee-\]yy	.
4BBB-/yy 4BB-yy	.	.	.	.	.	.	.	.	.	.	.	.	.
4BBB-/yy 4BB-yy	2c/yy 2anyy	.	[2c/)yy	.	(4f/yy	.	2f/)yy 2anyy	.	.	.	.	(4ff\yy	.
4BBB-/yy 4BB-yy	.	.	.	.	[4e-/)yy	.	.	.	.	.	.	[4ee-\)yy	.
*Xrep	*	*	*	*	*	*	*	*	*	*	*	*	*
=31	=31	=31	=31	=31	=31	=31	=31	=31	=31	=31	=31	=31	=31
*rep	*	*	*	*	*	*	*	*	*	*	*	*	*
4BBB-/yy 4BB-yy	2d/)yy 2b-yy	.	(2d\]yy	.	2f/]yy	.	2d/yy 2b-yy	.	1r	.	.	2dd\]yy	.
4BBB-/yy 4BB-yy	.	.	.	.	.	.	.	.	.	.	.	.	.
4BBB-/yy 4BB-yy	4ryy	.	4B-/)yy	.	4ryy	.	4ryy	.	.	.	.	4ryy	.
4BBB-/yy 4BB-yy	4d/yy 4fyy	.	[4B-/yy	.	[4d/yy	.	[4f/yy	.	.	.	.	[4dd\yy	.
*Xrep	*	*	*	*	*	*	*	*	*	*	*	*	*
=32	=32	=32	=32	=32	=32	=32	=32	=32	=32	=32	=32	=32	=32
*rep	*	*	*	*	*	*	*	*	*	*	*	*	*
4BBB-/yy 4BB-yy	2e-/yy 2gyy	.	(2B-\]yy	.	2e-/]yy	.	2g/]yy	.	1r	.	.	2ee-\]yy	.
4BBB-/yy 4BB-yy	.	.	.	.	.	.	.	.	.	.	.	.	.
4BBB-/yy 4BB-yy	(2c/yy 2anyy	.	[(2c\)yy	.	(4f/yy	.	2e-/yy 2anyy	.	.	.	.	(4ff\yy	.
4BBB-/yy 4BB-yy	.	.	.	.	[4e-/)yy	.	.	.	.	.	.	[4ee-\)yy	.
*Xrep	*	*	*	*	*	*	*	*	*	*	*	*	*
=33	=33	=33	=33	=33	=33	=33	=33	=33	=33	=33	=33	=33	=33
*8ba	*	*	*	*	*	*	*	*	*	*	*	*	*
4BBB-/yy	4d/)yy 4b-yy	.	4B-\)]yy	.	4d/]yy	.	4d/yy 4b-yy	.	1r	.	.	4dd\]yy	.
4ryy	4ryy	.	4ryy	.	4ryy	.	4ryy	.	.	.	.	4ryy	.
4BBB-/yy	4B-/yy 4b-yy	.	4B-\yy	.	4B-/yy	.	4b-\yy	.	.	.	.	2ryy	.
4BBB-/yy	4B-/yy 4b-yy	.	[4B-\yy	.	[4B-/yy	.	[4b-\yy	.	.	.	.	.	.
*X8ba	*	*	*	*	*	*	*	*	*	*	*	*	*
=34	=34	=34	=34	=34	=34	=34	=34	=34	=34	=34	=34	=34	=34
!	!	!	!	!	!	!	!	!	!	!	!	!LO:TX:a:t=1	!
2BBB-/yy 2BB-yy	2B-/yy 2b-yy	.	2B-/]yy	.	2B-/]yy	.	2b-\]yy	.	1r;	.	.	1ryy	.
2ryy	2ryy	.	2ryy	.	2ryy	.	2ryy	.	.	.	.	.	.
!	!	!	!	!	!	!	!	!	!	!LO:LB:g=original	!	!	!
=35	=35	=35	=35	=35	=35	=35	=35	=35	=35	=35	=35	=35	=35
1EE-yy 1E-yy	4ryy	.	4ryy	.	4ryy	.	4ryy	.	2E-\	O	.	1ryy	.
.	4G/yy 4e-yy	.	4E-/yy 4Gyy	.	4B-/yy 4gyy	.	4e-/yy	.	.	.	.	.	.
.	4G/yy 4e-yy	.	4E-/yy 4Gyy	.	4B-/yy 4gyy	.	4e-/yy	.	4.G\	Sa-	.	.	.
.	4G/yy 4e-yy	.	4E-/yy 4Gyy	.	4B-/yy 4gyy	.	[4e-/yy	.	.	.	.	.	.
.	.	.	.	.	.	.	.	.	8E-\	-lu-	.	.	.
=36	=36	=36	=36	=36	=36	=36	=36	=36	=36	=36	=36	=36	=36
4EE-/yy 4E-yy	4ryy	.	4E-/yy	.	4B-/yy 4gyy	.	4e-/]yy	.	2B-\	-ta-	.	4ryy	.
(4G\yy	(4e-/yy	.	(4G/yy	.	(4e-/yy	.	(4g/yy	.	.	.	.	4eee-\yy	.
4F\yy	4d/yy	.	4F/yy	.	4d/yy	.	4f/yy	.	4B-\	-ris	.	(4ddd\yy	.
[4E-\)yy	[4e-/)yy	.	[4E-/)yy	.	[4e-/)yy	.	[4e-/)yy	.	4r	.	.	[4eee-\)yy	.
=37	=37	=37	=37	=37	=37	=37	=37	=37	=37	=37	=37	=37	=37
2D\]yy	2f/]yy	.	4D/]yy	.	4f/]yy	.	4d/]yy	.	(2B-\	hos-	.	4fff\]yy	.
.	.	.	4D/yy	.	4f/yy	.	4d/yy	.	.	.	.	4ryy	.
2BBB-/yy 2BB-yy	4ryy	.	[2B-/yy	.	4ryy	.	4ryy	.	4.A-\)	.	.	2ryy	.
.	4d/yy	.	.	.	[4B-/yy	.	4d/yy	.	.	.	.	.	.
.	.	.	.	.	.	.	.	.	8F\	-ti-	.	.	.
=38	=38	=38	=38	=38	=38	=38	=38	=38	=38	=38	=38	=38	=38
1CCyy 1Cyy	4ryy	.	2c\]yy	.	4c/]yy	.	4ryy	.	2E-\	-a	.	4ryy	.
.	(4G/yy	.	.	.	(4G/yy	.	(4G/yy	.	.	.	.	(4g/yy	.
.	4c/yy	.	[2C/yy	.	4c/yy	.	4c/yy	.	4r	.	.	4cc\yy	.
.	4e-/)yy	.	.	.	[4e-/)yy	.	4e-/)yy	.	4F\	quae	.	[4ee-\)yy	.
=39	=39	=39	=39	=39	=39	=39	=39	=39	=39	=39	=39	=39	=39
2AA-/yy	4ryy	.	2c\]yy	.	(2e-/]yy	.	4ryy	.	2A-\	cae-	.	4aa-\]yy	.
.	(4e-/yy 4ccyy	.	.	.	.	.	(4cc\yy	.	.	.	.	(4eee-\yy	.
[2A-\yy	4d/yy 4b-yy	.	4B-/yy	.	4d/yy	.	4b-\yy	.	(4B-\	-li	.	4ddd\yy	.
.	4c/)yy 4a-yy	.	[4A-/yy	.	[4c/)yy	.	[4a-\)yy	.	4c\)	.	.	[4ccc\)yy	.
=40	=40	=40	=40	=40	=40	=40	=40	=40	=40	=40	=40	=40	=40
2E-\]yy	2g/yy	.	(4G/]yy	.	(4B-/]yy	.	(2g/]yy	.	2B-\	pan-	.	(4bb-\]yy	.
.	.	.	4B-/)yy	.	4e-/)yy	.	.	.	.	.	.	4ee-\)yy	.
2EE-/yy	[2e-/yy	.	(4G/yy	.	(4B-/yy	.	[2f/)yy	.	4E-\	-dis	.	(4gg\yy	.
.	.	.	[4B-/)yy	.	[4e-/)yy	.	.	.	4r	.	.	[4ee-\)yy	.
!	!	!	!	!	!	!	!	!	!LO:LB:g=original	!	!	!	!
=41	=41	=41	=41	=41	=41	=41	=41	=41	=41	=41	=41	=41	=41
2DD\yy 2Dyy	2f/]yy	.	(4A-/]yy	.	(4B-/]yy	.	(2f/]yy	.	2.A-\	o-	.	(2aa-\]yy	.
.	.	.	4B-/)yy	.	4d/)yy	.	.	.	.	.	.	.	.
2EE-\yy 2E-yy	2e-/yy	.	(4B-/yy	.	(4g/yy	.	[2e-/)yy	.	.	.	.	[2gg\)yy	.
.	.	.	[4G/)yy	.	[4e-/)yy	.	.	.	4A-\	-sti-	.	.	.
=42	=42	=42	=42	=42	=42	=42	=42	=42	=42	=42	=42	=42	=42
4BB-\yy	4dyy 4F</yy	.	4B-/]yy	.	4d/]yy	.	4d/]yy	.	2F\	-um	.	4ff\]yy	.
4BB-\yy	4ryy	.	4B-/yy	.	4B-/yy	.	4ryy	.	.	.	.	4ryy	.
4D\yy	2ryy	.	4D/yy	.	4d/yy	.	2ryy	.	2r	.	.	2ryy	.
4F\yy	.	.	4F/yy	.	4f/yy	.	.	.	.	.	.	.	.
*	*	*	*Xrep	*	*Xrep	*	*Xrep	*	*	*	*	*Xrep	*
=43	=43	=43	=43	=43	=43	=43	=43	=43	=43	=43	=43	=43	=43
!	!	!	!	!	!	!	!	!	!	!	!	!	!LO:DY:a
2BB-/	4d/ 4f	p	4B-/	.	4d/	.	4f/	.	(4F\	bel-	.	(4ff\	p
.	4d/ 4f	.	4B-/	.	4d/	.	4f/	.	4d\)	.	.	4ddd\)	.
2BB-/	4d/ 4f	.	4B-/	.	4d/	.	4f/	.	(4c\	-la	.	(4ccc\	.
.	4d/ 4f	.	4B-/	.	4d/	.	4f/	.	4B-\)	.	.	4bb-\)	.
!	!	!	!	!	!	!	!	!	!	!	!	!LO:LB:g=original	!
=44	=44	=44	=44	=44	=44	=44	=44	=44	=44	=44	=44	=44	=44
!	!	!	!	!	!	!	!	!	!	!	!	!	!LO:DY:a
2C/	4e-/ 4f	.	4c\	.	4e-/	.	4f/	.	2B-\	pre-	.	(2bb-\	pp
.	4e-/ 4f	.	4c\	.	4e-/	.	4f/	.	.	.	.	.	.
2C/	4e-/ 4f	.	4c\	.	4e-/	.	4f/	.	4An\	-munt	.	4aan\)	.
.	4e-/ 4f	.	4c\	.	4e-/	.	4f/	.	4r	.	.	4r	.
!	!	!	!	!	!LO:LB:g=original	!	!	!	!	!	!	!	!
=45	=45	=45	=45	=45	=45	=45	=45	=45	=45	=45	=45	=45	=45
2D/	4B-/ 4f 4a-	.	4B-/ 4d	.	4f/	.	4a-/	.	(4A-X\	ho-	.	(4aa-X\	.
.	4B-/ 4f 4a-	.	4B-/ 4d	.	4f/	.	4a-/	.	4c\)	.	.	4ccc\)	.
2BB-/	4B-/ 4f 4a-	.	4B-/ 4d	.	4f/	.	4a-/	.	4.B-\	-sti-	.	4.bb-\	.
.	4B-/ 4f 4a-	.	4B-/ 4d	.	4f/	.	4a-/	.	.	.	.	.	.
.	.	.	.	.	.	.	.	.	8A-\	-li-	.	8aa-\	.
!	!	!	!LO:LB:g=original	!	!	!	!LO:LB:g=original	!	!	!	!	!	!
=46	=46	=46	=46	=46	=46	=46	=46	=46	=46	=46	=46	=46	=46
4E-\	2.B-/ 2.e- 2.g	.	4B-/ 4e-	.	4e-/	.	4g/	.	2G\	-a	.	2gg\	.
4BB-/	.	.	4B-/ 4e-	.	4e-/	.	4g/	.	.	.	.	.	.
4EE-/	.	.	4B-/ 4e-	.	4e-/	.	4g/	.	4r	.	.	2r	.
4r	4r	.	4r	.	4r	.	4r	.	4BB-/	da	.	.	.
!LO:LB:g=original	!LO:LB:g=original	!	!	!	!	!	!	!	!LO:LB:g=original	!	!	!	!
=47	=47	=47	=47	=47	=47	=47	=47	=47	=47	=47	=47	=47	=47
!	!	!	!	!	!	!	!	!LO:DY:b	!	!	!	!LO:TX:a:t=3	!
2GG/ 2E-	4B-/ 4e-	.	4G/	.	4B-/ 4e-	.	4g/	sf	(4E-\	ro-	.	1r	.
.	4B-/ 4e-	.	4G/	.	4B-/ 4e-	.	4g^>/	.	4G\)	.	.	.	.
2GG/ 2E-	4B-/ 4e-	.	4G/	.	4B-/ 4e-	.	4g/	.	(4B-\	-bur	.	.	.
.	4B-/ 4e-	.	4G/	.	4B-/ 4e-	.	4g/	.	4G\)	.	.	.	.
=48	=48	=48	=48	=48	=48	=48	=48	=48	=48	=48	=48	=48	=48
!	!	!	!	!	!	!LO:DY:a	!	!	!	!	!	!	!
4AA-/	4c/ 4e- 4f	sf	4A-/	.	4c/ 4e-	<	4f/	.	2F\	fer	.	1r	.
!	!	!	!	!LO:DY:b	!	!	!	!LO:DY:b	!	!	!	!	!
4C/	4c/ 4e- 4f	.	4A-^>/	sf	4c/ 4e-	.	4f^>/	sf	.	.	.	.	.
4F\	4c/ 4e- 4f	.	4A-/	.	4c/ 4e-	.	4f/	.	4r	.	.	.	.
4AA-/	4c/ 4e- 4f	.	4A-/	.	4c/ 4e-	[[	4f/	.	4F\	au-	.	.	.
=49	=49	=49	=49	=49	=49	=49	=49	=49	=49	=49	=49	=49	=49
4BB-/	4d-X/ 4e- 4g	.	4G/	.	4d-X/ 4e-	.	4e-/	.	2.G\	-xi-	.	1r	.
!	!	!	!	!LO:DY:b	!	!	!	!LO:DY:b	!	!	!	!	!
4D-X/	4d-/ 4e- 4g	.	4G^>/	sf	4d-/ 4e-	.	4g^>/	sf	.	.	.	.	.
4G\	4d-/ 4e- 4g	.	4G/	.	4d-/ 4e-	.	4g/	.	.	.	.	.	.
*	*	*	*	*	*	*	*	*	*	*	*below	*	*
4D-\	4d-/ 4e- 4g	.	4G/	.	4d-/ 4e-	.	4g/	.	4G\	-li-	<[	.	.
!	!	!	!	!	!LO:LB:g=original	!	!	!	!	!	!	!	!
=50	=50	=50	=50	=50	=50	=50	=50	=50	=50	=50	=50	=50	=50
4C\	2e-/ 2a-	.	4A-/	.	4c/ 4e-	.	4a-/	.	2B-\	-um	.	2r	.
4E-\	.	.	4A-/	.	4c/ 4e-	.	4a-/	.	.	.	.	.	.
4A-\	4r	.	4A-/	.	4c/ 4e-	.	4a-/	.	4r	.	.	4r	.
!	!	!	!	!	!	!	!	!	!	!	!LO:DY:a	!	!LO:DY:a
4C/	4c/	p	4r	.	4r	.	4r	.	4c\	da	p	4ccc\	p
!	!	!	!	!	!	!	!LO:LB:g=original	!	!	!	!	!	!
=51|:	=51|:	=51	=51	=51	=51	=51	=51	=51	=51	=51	=51	=51	=51
*	*	*	*tremolo	*	*	*	*	*	*	*	*	*	*
*	*	*	*	*	*tremolo	*	*	*	*	*	*	*	*
*	*	*	*	*	*	*	*tremolo	*	*	*	*	*	*
!	!LO:TX:t=P:problem=znak repetycji na początku taktu	!	!	!	!	!	!	!	!	!	!	!	!
2D\	2B-/ 2a-	.	(16d\LL	p	(16f/LL	p	(16a-/LL	p	(4c\	ro-	<	(4ccc\	.
.	.	.	16B-\	.	16B-/)	.	16B-/)	.	.	.	.	.	.
.	.	.	16d\	.	16f/	.	16a-/	.	.	.	.	.	.
.	.	.	16B-\	.	16B-/)	.	16B-/)	.	.	.	.	.	.
.	.	.	16d\	.	16f/	.	16a-/	.	4B-\)	.	.	4bb-\	.
.	.	.	16B-\	.	16B-/)	.	16B-/)	.	.	.	.	.	.
.	.	.	16d\	.	16f/	.	16a-/	.	.	.	.	.	.
.	.	.	16B-\)JJ	.	16B-/)JJ	.	16B-/)JJ	.	.	.	.	.	.
*	*	*	*rep	*	*rep	*	*rep	*	*	*	*	*	*
2D\	2B-/ 2a-	.	(16d\LL	.	(16f/LL	.	(16a-/LL	.	(4F\	-bur	.	4ff\	.
.	.	.	16B-\	.	16B-/)	.	16B-/)	.	.	.	.	.	.
.	.	.	16d\	.	16f/	.	16a-/	.	.	.	.	.	.
.	.	.	16B-\	.	16B-/)	.	16B-/)	.	.	.	.	.	.
.	.	.	16d\	.	16f/	.	16a-/	.	4A-\)	.	[[	4aa-\)	.
.	.	.	16B-\	.	16B-/)	.	16B-/)	.	.	.	.	.	.
.	.	.	16d\	.	16f/	.	16a-/	.	.	.	.	.	.
.	.	.	16B-\)JJ	.	16B-/)JJ	.	16B-/)JJ	.	.	.	.	.	.
*	*	*	*Xrep	*	*Xrep	*	*Xrep	*	*	*	*	*	*
!	!	!	!LO:LB:g=original	!	!	!	!	!	!	!	!	!LO:LB:g=original	!
=52	=52	=52	=52	=52	=52	=52	=52	=52	=52	=52	=52	=52	=52
2E-\	2B-/ 2g	.	(16G/LL	.	(16e-/LL	.	(16g/LL	.	2G\	fer	.	(4gg\	.
.	.	.	16B-/	.	16B-/)	.	16B-/)	.	.	.	.	.	.
.	.	.	16G/	.	16e-/	.	16g/	.	.	.	.	.	.
.	.	.	16B-/	.	16B-/)	.	16B-/)	.	.	.	.	.	.
.	.	.	16G/	.	16e-/	.	16g/	.	.	.	.	4bb-\	.
.	.	.	16B-/	.	16B-/)	.	16B-/)	.	.	.	.	.	.
.	.	.	16G/	.	16e-/	.	16g/	.	.	.	.	.	.
.	.	.	16B-/)JJ	.	16B-/)JJ	.	16B-/)JJ	.	.	.	.	.	.
*	*	*	*rep	*	*rep	*	*rep	*	*	*	*	*	*
2E-\	2B-/ 2g	.	(16G/LL	.	(16e-/LL	.	(16g/LL	.	4r	.	.	4ggg\)	.
.	.	.	16B-/	.	16B-/)	.	16B-/)	.	.	.	.	.	.
.	.	.	16G/	.	16e-/	.	16g/	.	.	.	.	.	.
.	.	.	16B-/	.	16B-/)	.	16B-/)	.	.	.	.	.	.
.	.	.	16G/	.	16e-/	.	16g/	.	4E-\	au-	.	8eee-\L	.
.	.	.	16B-/	.	16B-/)	.	16B-/)	.	.	.	.	.	.
.	.	.	16G/	.	16e-/	.	16g/	.	.	.	.	8ccc\J	.
.	.	.	16B-/)JJ	.	16B-/)JJ	.	16B-/)JJ	.	.	.	.	.	.
*	*	*	*Xrep	*	*Xrep	*	*Xrep	*	*	*	*	*	*
!	!	!	!	!	!	!	!	!	!LO:LB:g=original	!	!	!	!
=53	=53	=53	=53	=53	=53	=53	=53	=53	=53	=53	=53	=53	=53
2D\	2B-/ 2f	.	(16A-/LL	.	(16d/LL	.	(16f/LL	.	(4c\	-xi-	.	(4ccc\	.
.	.	.	16c/	.	16B-/)	.	16B-/)	.	.	.	.	.	.
.	.	.	16A-/	.	16d/	.	16f/	.	.	.	.	.	.
.	.	.	16c/	.	16B-/)	.	16B-/)	.	.	.	.	.	.
.	.	.	16A-/	.	16d/	.	16f/	.	4B-\	.	.	4bb-\	.
.	.	.	16c/	.	16B-/)	.	16B-/)	.	.	.	.	.	.
.	.	.	16A-/	.	16d/	.	16f/	.	.	.	.	.	.
.	.	.	16c/)JJ	.	16B-/)JJ	.	16B-/)JJ	.	.	.	.	.	.
*	*	*	*rep	*	*rep	*	*rep	*	*	*	*	*	*
2D\	2B-/ 2a-	.	(16A-/LL	.	(16d/LL	.	(16f/LL	.	4.F\)	.	.	4.ff\)	.
.	.	.	16c/	.	16B-/)	.	16B-/)	.	.	.	.	.	.
.	.	.	16A-/	.	16d/	.	16f/	.	.	.	.	.	.
.	.	.	16c/	.	16B-/)	.	16B-/)	.	.	.	.	.	.
.	.	.	16A-/	.	16d/	.	16f/	.	.	.	.	.	.
.	.	.	16c/	.	16B-/)	.	16B-/)	.	.	.	.	.	.
.	.	.	16A-/	.	16d/	.	16f/	.	8A-\	-li-	.	8aa-\	.
.	.	.	16c/)JJ	.	16B-/)JJ	.	16B-/)JJ	.	.	.	.	.	.
*	*	*	*Xrep	*	*Xrep	*	*Xrep	*	*	*	*	*	*
=54	=54	=54	=54	=54	=54	=54	=54	=54	=54	=54	=54	=54	=54
8E-\	8B-/ 8g	.	8G/	.	8B-/ 8e-	.	8G/ 8e-	.	8G\	-um	.	8gg\	.
8r	8r	.	8r	f	8r	f	8r	f	8r	.	.	8r	.
!	!	!	!	!LO:HP:a	!	!LO:HP:a	!	!LO:HP:b	!LO:TX:a:t=cresc.	!	!	!LO:TX:b:i:t=cres&colon;	!LO:HP:a
4EE-/ 4E-	4e-/	<	16E-/LL	<	16e-/LL	<	16ee-\LL	<	4E-\	da	.	4ee-\	<
.	.	.	16E-/	.	16e-/	.	16ee-\	.	.	.	.	.	.
.	.	.	16E-/	.	16e-/	.	16ee-\	.	.	.	.	.	.
.	.	.	16E-/JJ	.	16e-/JJ	.	16ee-\JJ	.	.	.	.	.	.
4FF/ 4F	4f/	.	16F/LL	.	16f/LL	.	16ff\LL	.	4F\	ro-	.	4ff\	.
.	.	.	16F/	.	16f/	.	16ff\	.	.	.	.	.	.
.	.	.	16F/	.	16f/	.	16ff\	.	.	.	.	.	.
.	.	.	16F/JJ	.	16f/JJ	.	16ff\JJ	.	.	.	.	.	.
4GG/ 4G	4g/	.	16G/LL	.	16g/LL	.	16gg\LL	.	4G\	-bur	.	4gg\	.
.	.	.	16G/	.	16g/	.	16gg\	.	.	.	.	.	.
.	.	.	16G/	.	16g/	.	16gg\	.	.	.	.	.	.
.	.	.	16G/JJ	.	16g/JJ	.	16gg\JJ	.	.	.	.	.	.
!LO:LB:g=original	!LO:LB:g=original	!	!	!	!LO:LB:g=original	!	!	!	!	!	!	!	!
=55	=55	=55	=55	=55	=55	=55	=55	=55	=55	=55	=55	=55	=55
!	!	!	!	!	!	!	!	!	!	!	!LO:DY:a	!	!
4AA-\ 4A-	4a-/	.	16A-/LL	.	16a-\LL	.	16aa-\LL	.	4A-\	fer	<	4aa-\	.
.	.	.	16A-/	.	16a-\	.	16aa-\	.	.	.	.	.	.
.	.	.	16A-/	.	16a-\	.	16aa-\	.	.	.	.	.	.
.	.	.	16A-/JJ	.	16a-\JJ	.	16aa-\JJ	.	.	.	.	.	.
4BB-\ 4B-	4b-/	.	16B-/LL	.	16b-\LL	.	16bb-\LL	.	4B-\	au-	.	4bb-\	.
.	.	.	16B-/	.	16b-\	.	16bb-\	.	.	.	.	.	.
.	.	.	16B-/	.	16b-\	.	16bb-\	.	.	.	.	.	.
.	.	.	16B-/JJ	.	16b-\JJ	.	16bb-\JJ	.	.	.	.	.	.
4C\ 4c	4cc\	.	16c/LL	.	16cc\LL	.	16ccc\LL	.	4c\	-xi-	.	4ccc\	.
.	.	.	16c/	.	16cc\	.	16ccc\	.	.	.	.	.	.
.	.	.	16c/	.	16cc\	.	16ccc\	.	.	.	.	.	.
.	.	.	16c/JJ	.	16cc\JJ	.	16ccc\JJ	.	.	.	.	.	.
4D\ 4d	4dd\	.	16d\LL	[[	16dd\LL	[[	16ddd\LL	[[	4d\	-li-	[[	4ddd\	[[
.	.	.	16d\	.	16dd\	.	16ddd\	.	.	.	.	.	.
.	.	.	16d\	.	16dd\	.	16ddd\	.	.	.	.	.	.
.	.	.	16d\JJ	.	16dd\JJ	.	16ddd\JJ	.	.	.	.	.	.
!	!	!	!	!	!	!	!LO:LB:g=original	!	!	!	!	!LO:LB:g=original	!
=56	=56	=56	=56	=56	=56	=56	=56	=56	=56	=56	=56	=56	=56
*>[A1,A1,A2]	*	*	*	*	*	*	*	*	*	*	*	*	*
*>norep[A1,A2]	*	*	*	*	*	*	*	*	*	*	*	*	*
*>A1	*	*	*	*	*	*	*	*	*	*	*	*	*
*	*tremolo	*	*	*	*	*	*	*	*	*	*	*	*
!	!LO:TX:t=P:problem=t.56-58 pierwsza volta	!	!	!	!	!	!	!	!	!	!	!	!
2C\ 2c	8g-X\ 8an 8ee-L	[	16e-X\ 16anLL	.	16g-X\ 16ee-LL	.	16eee-\LL	.	2.e-\	-um	.	(2eee-\	.
.	.	.	16e-X\ 16an	.	16g-X\ 16ee-	.	16eee-\	.	.	.	.	.	.
.	8g-X\ 8an 8ee-	.	16e-X\ 16an	.	16g-X\ 16ee-	.	16eee-\	.	.	.	.	.	.
.	.	.	16e-X\ 16an	.	16g-X\ 16ee-	.	16eee-\	.	.	.	.	.	.
.	8g-X\ 8an 8ee-	.	16e-X\ 16an	.	16g-X\ 16ee-	.	16eee-\	.	.	.	.	.	.
.	.	.	16e-X\ 16an	.	16g-X\ 16ee-	.	16eee-\	.	.	.	.	.	.
.	8g-X\ 8an 8ee-J	.	16e-X\ 16an	.	16g-X\ 16ee-	.	16eee-\	.	.	.	.	.	.
.	.	.	16e-X\ 16anJJ	.	16g-X\ 16ee-JJ	.	16eee-\JJ	.	.	.	.	.	.
2C\ 2c	8e-/ 8g- 8aL	.	16c\ 16e-LL	.	16g-/ 16anLL	.	16aan\LL	.	.	.	.	2ff#X\)	.
.	.	.	16c\ 16e-	.	16g-/ 16an	.	16aan\	.	.	.	.	.	.
.	8e-/ 8g- 8a	.	16c\ 16e-	.	16g-/ 16an	.	16aan\	.	.	.	.	.	.
.	.	.	16c\ 16e-	.	16g-/ 16an	.	16aan\	.	.	.	.	.	.
.	8e-/ 8g- 8a	.	16c\ 16e-	.	16g-/ 16an	.	16aan\	.	4c\	au-	.	.	.
.	.	.	16c\ 16e-	.	16g-/ 16an	.	16aan\	.	.	.	.	.	.
.	8e-/ 8g- 8aJ	.	16c\ 16e-	.	16g-/ 16an	.	16aan\	.	.	.	.	.	.
.	.	.	16c\ 16e-JJ	.	16g-/ 16anJJ	.	16aan\JJ	.	.	.	.	.	.
*	*Xtremolo	*	*	*	*	*	*	*	*	*	*	*	*
!	!	!	!LO:LB:g=original	!	!	!	!	!	!	!	!	!	!
=57	=57	=57	=57	=57	=57	=57	=57	=57	=57	=57	=57	=57	=57
!	!LO:TX:a:t=1ma Volta	!	!	!	!	!	!	!	!	!	!LO:DY:a	!	!
2BB-\ 2B-	4e-/ 4gn	.	16B-\ 16e-LL	.	16B-/ 16gnLL	.	16bb-\LL	.	2.B-\	-xi-	>	(2gg\	.
.	.	.	16B-\ 16e-	.	16B-/ 16gn	.	16bb-\	.	.	.	.	.	.
.	.	.	16B-\ 16e-	.	16B-/ 16gn	.	16bb-\	.	.	.	.	.	.
.	.	.	16B-\ 16e-	.	16B-/ 16gn	.	16bb-\JJ	.	.	.	.	.	.
.	4B-/ 4e- 4g	.	16B-\ 16e-	.	16B-/ 16gn	.	16gg\LL	.	.	.	.	.	.
.	.	.	16B-\ 16e-	.	16B-/ 16gn	.	16gg\	.	.	.	.	.	.
.	.	.	16B-\ 16e-	.	16B-/ 16gn	.	16gg\	.	.	.	.	.	.
.	.	.	16B-\ 16e-JJ	.	16B-/ 16gnJJ	.	16gg\JJ	.	.	.	.	.	.
2BBB-/ 2BB-	4A-/ 4e- 4f	.	16B-\ 16dLL	.	16A-/ 16fLL	.	16ff\LL	.	.	.	.	2ffn\)	.
.	.	.	16B-\ 16d	.	16A-/ 16f	.	16ff\	.	.	.	.	.	.
.	.	.	16B-\ 16d	.	16A-/ 16f	.	16ff\	.	.	.	.	.	.
.	.	.	16B-\ 16d	.	16A-/ 16f	.	16ff\	.	.	.	.	.	.
.	4A-/ 4d 4f	.	16B-\ 16d	.	16A-/ 16f	.	16ff\	.	4B-\	-li-	]]	.	.
.	.	.	16B-\ 16d	.	16A-/ 16f	.	16ff\	.	.	.	.	.	.
.	.	.	16B-\ 16d	.	16A-/ 16f	.	16ff\	.	.	.	.	.	.
.	.	.	16B-\ 16dJJ	.	16A-/ 16fJJ	.	16ff\JJ	.	.	.	.	.	.
=58	=58	=58	=58	=58	=58	=58	=58	=58	=58	=58	=58	=58	=58
*^	*	*	*	*	*	*	*	*	*	*	*	*	*
(4G/	2E-\	4B-/ 4e-	.	4c\ 4e-	.	4G/ 4e-	.	4ee-\	.	2E-\	-um	.	4ee-\	.
4B-/)	.	4r	.	(4E-/	.	(4B-/	.	4r	.	.	.	.	4r	.
(4G/	2E-\	4r	.	4G/	.	4G/	.	4r	.	4r	.	.	4r	.
!	!	!	!	!	!	!	!	!	!LO:DY:a	!	!	!LO:DY:a	!	!LO:DY:a
[4B-/)	.	4c/	.	4B-/)	.	4B-/)	.	4cc\	p	4c\	da	p	4ccc\	p
*v	*v	*	*	*	*	*	*	*	*	*	*	*	*	*
!	!	!	!	!	!	!	!	!	!LO:LB:g=original	!	!	!	!
=59:|!	=59:|!	=59	=59	=59	=59	=59	=59	=59	=59	=59	=59	=59	=59
2D\]yy	2B-/yy 2a-yy	.	(16f\LL	p	(16a-/LL	.	(4ccc\	.	(4c\	ro-	.	(4ccc\	.
.	.	.	16B-\)	.	16B-/)	.	.	.	.	.	.	.	.
.	.	.	16f\	.	16a-/	.	.	.	.	.	.	.	.
.	.	.	16B-\)	.	16B-/)	.	.	.	.	.	.	.	.
.	.	.	16f\	.	16a-/	.	4bb-\)	.	4B-\)	.	.	4bb-\	.
.	.	.	16B-\)	.	16B-/)	.	.	.	.	.	.	.	.
.	.	.	16f\	.	16a-/	.	.	.	.	.	.	.	.
.	.	.	16B-\)JJ	.	16B-/)JJ	.	.	.	.	.	.	.	.
*	*	*	*rep	*	*rep	*	*	*	*	*	*	*	*
[2D\yy	2B-/yy 2a-yy	.	(16f\LL	.	(16a-/LL	.	(4ff\	.	(4F\	-bur	.	4ff\	.
.	.	.	16B-\)	.	16B-/)	.	.	.	.	.	.	.	.
.	.	.	16f\	.	16a-/	.	.	.	.	.	.	.	.
.	.	.	16B-\)	.	16B-/)	.	.	.	.	.	.	.	.
.	.	.	16f\	.	16a-/	.	4aa-\)	.	4A-\)	.	.	4aa-\)	.
.	.	.	16B-\)	.	16B-/)	.	.	.	.	.	.	.	.
.	.	.	16f\	.	16a-/	.	.	.	.	.	.	.	.
.	.	.	16B-\)JJ	.	16B-/)JJ	.	.	.	.	.	.	.	.
*	*	*	*Xrep	*	*Xrep	*	*	*	*	*	*	*	*
!	!	!	!	!	!LO:LB:g=original	!	!	!	!	!	!	!	!
=60	=60	=60	=60	=60	=60	=60	=60	=60	=60	=60	=60	=60	=60
2E-\]yy	2B-/yy 2gyy	.	(16e-\LL	.	(16g/LL	.	4gg\	.	2G\	fer	.	(4gg\	.
.	.	.	16B-\)	.	16B-/)	.	.	.	.	.	.	.	.
.	.	.	16e-\	.	16g/	.	.	.	.	.	.	.	.
.	.	.	16B-\)	.	16B-/)	.	.	.	.	.	.	.	.
.	.	.	16e-\	.	16g/	.	(4b-\	.	.	.	.	4bb-\	.
.	.	.	16B-\)	.	16B-/)	.	.	.	.	.	.	.	.
.	.	.	16e-\	.	16g/	.	.	.	.	.	.	.	.
.	.	.	16B-\)JJ	.	16B-/)JJ	.	.	.	.	.	.	.	.
*	*	*	*rep	*	*rep	*	*	*	*	*	*	*	*
[2E-\yy	2B-/yy 2gyy	.	(16e-\LL	.	(16g/LL	.	4ee-\	.	4r	.	.	4ggg\)	.
.	.	.	16B-\)	.	16B-/)	.	.	.	.	.	.	.	.
.	.	.	16e-\	.	16g/	.	.	.	.	.	.	.	.
.	.	.	16B-\)	.	16B-/)	.	.	.	.	.	.	.	.
.	.	.	16e-\	.	16g/	.	4gg\)	.	4E-\	au-	.	8eee-\L	.
.	.	.	16B-\)	.	16B-/)	.	.	.	.	.	.	.	.
.	.	.	16e-\	.	16g/	.	.	.	.	.	.	8ccc\J	.
.	.	.	16B-\)JJ	.	16B-/)JJ	.	.	.	.	.	.	.	.
*	*	*	*Xrep	*	*Xrep	*	*	*	*	*	*	*	*
!	!	!	!	!	!	!	!LO:LB:g=original	!	!	!	!	!LO:LB:g=original	!
=61	=61	=61	=61	=61	=61	=61	=61	=61	=61	=61	=61	=61	=61
2D\]yy	2B-/yy 2fyy	.	(16d\LL	.	(16f/LL	.	4ccc\	.	(4c\	-xi-	.	(4ccc\	.
.	.	.	16B-\)	.	16B-/)	.	.	.	.	.	.	.	.
.	.	.	16d\	.	16f/	.	.	.	.	.	.	.	.
.	.	.	16B-\)	.	16B-/)	.	.	.	.	.	.	.	.
.	.	.	16d\	.	16f/	.	(4bb-\	.	4B-\	.	.	4bb-\	.
.	.	.	16B-\)	.	16B-/)	.	.	.	.	.	.	.	.
.	.	.	16d\	.	16f/	.	.	.	.	.	.	.	.
.	.	.	16B-\)JJ	.	16B-/)JJ	.	.	.	.	.	.	.	.
*	*	*	*rep	*	*rep	*	*	*	*	*	*	*	*
[2D\yy	2B-/yy 2a-yy	.	(16d\LL	.	(16f/LL	.	4ff\	.	4.F\)	.	.	4.ff\)	.
.	.	.	16B-\)	.	16B-/)	.	.	.	.	.	.	.	.
.	.	.	16d\	.	16f/	.	.	.	.	.	.	.	.
.	.	.	16B-\)	.	16B-/)	.	.	.	.	.	.	.	.
.	.	.	16d\	.	16f/	.	4aa-\)	.	.	.	.	.	.
.	.	.	16B-\)	.	16B-/)	.	.	.	.	.	.	.	.
.	.	.	16d\	.	16f/	.	.	.	8A-\	-li-	.	8aa-\	.
.	.	.	16B-\)JJ	.	16B-/)JJ	.	.	.	.	.	.	.	.
*	*	*	*Xrep	*	*Xrep	*	*	*	*	*	*	*	*
=62	=62	=62	=62	=62	=62	=62	=62	=62	=62	=62	=62	=62	=62
8E-\]yy	8B-/yy 8gyy	.	8B-\ 8e-	.	8G/ 8e-	.	8gg\	.	8G\	-um	.	8gg\	.
8ryy	8ryy	.	8r	.	8r	f	8r	f	8r	.	.	8r	.
!	!	!	!LO:LB:g=original	!	!	!	!	!	!	!	!LO:DY:a	!	!LO:DY:a
4EE-/yy 4E-yy	4e-/yy	.	16E-/LL	f	16e-/LL	.	16ee-\LL	<	4E-\	da	<	4ee-\	<
.	.	.	16E-/	.	16e-/	.	16ee-\	.	.	.	.	.	.
.	.	.	16E-/	.	16e-/	.	16ee-\	.	.	.	.	.	.
.	.	.	16E-/JJ	.	16e-/JJ	.	16ee-\JJ	.	.	.	.	.	.
4FF/yy 4Fyy	4f/yy	.	16F/LL	.	16f/LL	.	16ff\LL	.	4F\	ro-	.	4ff\	.
.	.	.	16F/	.	16f/	.	16ff\	.	.	.	.	.	.
.	.	.	16F/	.	16f/	.	16ff\	.	.	.	.	.	.
.	.	.	16F/JJ	.	16f/JJ	.	16ff\JJ	.	.	.	.	.	.
4GG/yy 4Gyy	[4g/yy	.	16G/LL	.	16g/LL	.	16gg\LL	.	4G\	-bur	.	4gg\	.
.	.	.	16G/	.	16g/	.	16gg\	.	.	.	.	.	.
.	.	.	16G/	.	16g/	.	16gg\	.	.	.	.	.	.
.	.	.	16G/JJ	.	16g/JJ	.	16gg\JJ	.	.	.	.	.	.
=63	=63	=63	=63	=63	=63	=63	=63	=63	=63	=63	=63	=63	=63
4AA-\yy 4A-yy	4a-/]yy	.	16A-/LL	.	16a-\LL	.	16aa-\LL	.	4A-\	fer	.	4aa-\	.
.	.	.	16A-/	.	16a-\	.	16aa-\	.	.	.	.	.	.
.	.	.	16A-/	.	16a-\	.	16aa-\	.	.	.	.	.	.
.	.	.	16A-/JJ	.	16a-\JJ	.	16aa-\JJ	.	.	.	.	.	.
4BB-\yy 4B-yy	4b-/yy	.	16B-/LL	.	16b-\LL	.	16bb-\LL	.	4B-\	au-	.	4bb-\	.
.	.	.	16B-/	.	16b-\	.	16bb-\	.	.	.	.	.	.
.	.	.	16B-/	.	16b-\	.	16bb-\	.	.	.	.	.	.
.	.	.	16B-/JJ	.	16b-\JJ	.	16bb-\JJ	.	.	.	.	.	.
4C\yy 4cyy	4cc\yy	.	16c\LL	.	16cc\LL	.	16ccc\LL	.	4c\	-xi-	.	4ccc\	.
.	.	.	16c\	.	16cc\	.	16ccc\	.	.	.	.	.	.
.	.	.	16c\	.	16cc\	.	16ccc\	.	.	.	.	.	.
.	.	.	16c\JJ	.	16cc\JJ	.	16ccc\JJ	.	.	.	.	.	.
4D\yy 4dyy	4dd\yy	.	16d\LL	.	16dd\LL	.	16ddd\LL	[[	4d\	-li-	[[	4ddd\	[[
.	.	.	16d\	.	16dd\	.	16ddd\	.	.	.	.	.	.
.	.	.	16d\	.	16dd\	.	16ddd\	.	.	.	.	.	.
.	.	.	16d\JJ	.	16dd\JJ	.	16ddd\JJ	.	.	.	.	.	.
!	!	!	!	!	!	!	!	!	!LO:LB:g=original	!	!	!	!
=64	=64	=64	=64	=64	=64	=64	=64	=64	=64	=64	=64	=64	=64
*>A2	*	*	*	*	*	*	*	*	*	*	*	*	*
!	!LO:TX:t=P:problem=t.64-66 druga volta	!	!	!	!	!	!	!	!	!	!LO:DY:a	!	!
4FF/ 4F	2.f\ 2.an 2.ee-	[ >	16e-X\ 16anLL	.	16fn\ 16ee-LL	.	16eee-\LL	>	2.e-\	-um	>	(2.eee-\	.
.	.	.	16e-X\ 16an	.	16fn\ 16ee-	.	16eee-\	.	.	.	.	.	.
.	.	.	16e-X\ 16an	.	16fn\ 16ee-	.	16eee-\	.	.	.	.	.	.
.	.	.	16e-X\ 16an	.	16fn\ 16ee-	.	16eee-\	.	.	.	.	.	.
4C\ 4c	.	.	16e-X\ 16an	.	16fn\ 16ee-	.	16eee-\	.	.	.	.	.	.
.	.	.	16e-X\ 16an	.	16fn\ 16ee-	.	16eee-\	.	.	.	.	.	.
.	.	.	16e-X\ 16an	.	16fn\ 16ee-	.	16eee-\	.	.	.	.	.	.
.	.	.	16e-X\ 16anJJ	.	16fn\ 16ee-JJ	.	16eee-\	.	.	.	.	.	.
*	*	*	*rep	*	*	*	*	*	*	*	*	*	*
4AAn\ 4An	.	.	16e-\ 16aLL	.	16f\ 16ccLL	.	16eee-\	.	.	.	.	.	.
.	.	.	16e-\ 16a	.	16f\ 16cc	.	16eee-\	.	.	.	.	.	.
.	.	.	16e-\ 16a	.	16f\ 16cc	.	16eee-\	.	.	.	.	.	.
.	.	.	16e-\ 16a	.	16f\ 16cc	.	16eee-\JJ	.	.	.	.	.	.
4FF\ 4F	4f\ 4a 4cc	.	16e-\ 16a	.	16f\ 16cc	.	16ccc\LL	]]	4c\	da	]]	4ccc\)	.
.	.	.	16e-\ 16a	.	16f\ 16cc	.	16ccc\	.	.	.	.	.	.
.	.	.	16e-\ 16a	.	16f\ 16cc	.	16ccc\	.	.	.	.	.	.
.	.	.	16e-\ 16aJJ	.	16f\ 16ccJJ	.	16ccc\JJ	.	.	.	.	.	.
*	*	*	*Xrep	*	*	*	*Xtremolo	*	*	*	*	*	*
!	!	!	!	!	!LO:LB:g=original	!	!LO:LB:g=original	!	!	!	!	!	!
=65	=65	=65	=65	=65	=65	=65	=65	=65	=65	=65	=65	=65	=65
*	*^	*	*	*	*	*	*	*	*	*	*	*	*
*	*	*	*	*	*	*	*	*	*	*	*	*	*	*
!	!LO:TX:a:t=2da volta	!	!	!	!	!	!	!	!	!	!	!	!	!
2AA-X\ 2A-X	(4cc/	2d\ 2f	]	16B-\ 16fLL	p	16B-/ 16a-LL	p	(4ccc\	>]	(4c\	ro-	.	2ff\	.
.	.	.	.	16B-\ 16f	.	16B-/ 16a-	.	.	.	.	.	.	.	.
.	.	.	.	16B-\ 16f	.	16B-/ 16a-	.	.	.	.	.	.	.	.
.	.	.	.	16B-\ 16f	.	16B-/ 16a-	.	.	.	.	.	.	.	.
.	8b-/)	.	.	16B-\ 16f	.	16B-/ 16a-	.	8bb-\)	.	8B-\)	.	.	.	.
.	.	.	.	16B-\ 16f	.	16B-/ 16a-	.	.	.	.	.	.	.	.
.	8r	.	.	16B-\ 16f	.	16B-/ 16a-	.	8r	.	8r	.	.	.	.
.	.	.	.	16B-\ 16fJJ	.	16B-/ 16a-JJ	.	.	.	.	.	.	.	.
2AA-\ 2A-	(4cc/	2d\ 2f	.	16B-\ 16dLL	.	16B-/ 16fLL	.	(4ccc\	>]	(4c\	-bur	.	2dd\	.
.	.	.	.	16B-\ 16d	.	16B-/ 16f	.	.	.	.	.	.	.	.
.	.	.	.	16B-\ 16d	.	16B-/ 16f	.	.	.	.	.	.	.	.
.	.	.	.	16B-\ 16d	.	16B-/ 16f	.	.	.	.	.	.	.	.
.	8b-/)	.	.	16B-\ 16d	.	16B-/ 16f	.	8bb-\)	.	8B-\)	.	.	.	.
.	.	.	.	16B-\ 16d	.	16B-/ 16f	.	.	.	.	.	.	.	.
.	8r	.	.	16B-\ 16d	.	16B-/ 16f	.	8r	.	8r	.	.	.	.
.	.	.	.	16B-\ 16dJJ	.	16B-/ 16fJJ	.	.	.	.	.	.	.	.
*	*	*	*	*	*	*Xtremolo	*	*	*	*	*	*	*	*
*	*	*	*	*Xtremolo	*	*	*	*	*	*	*	*	*	*
*	*v	*v	*	*	*	*	*	*	*	*	*	*	*	*
!	!	!	!	!	!	!	!	!	!	!	!	!LO:LB:g=original	!
=66	=66	=66	=66	=66	=66	=66	=66	=66	=66	=66	=66	=66	=66
!LO:TX:a:t=g	!	!	!	!	!	!	!	!LO:DY:a	!	!	!	!	!LO:DY:a
2GG\ 2G	4r	.	4B-\ 4e-	.	4G/ 4e-	.	(2gg\	p	2.B-\	fer	.	(2gg\	p
.	4B-/ 4e- 4g	.	4G\ 4e-	pp	4B-/ 4g	.	.	.	.	.	.	.	.
2AA-\ 2A-	4r	.	4r	.	4r	.	2aa-\)	.	.	.	.	2ccc\)	.
.	4c/ 4e- 4a-	.	4A-\ 4e-	.	4c/ 4a-	.	.	.	4A-\	au-	.	.	.
!LO:LB:g=original	!	!	!LO:LB:g=original	!	!	!	!	!	!	!	!	!	!
=67	=67	=67	=67	=67	=67	=67	=67	=67	=67	=67	=67	=67	=67
2BB-/	4r	.	4r	.	4r	.	(2gg\	.	(2G\	-xi-	.	(2bb-\	.
.	4B-/ 4e- 4g	.	4G/ 4e-	.	4B-/ 4g	.	.	.	.	.	.	.	.
2BBB-/ 2BB-	4r	.	4r	.	4r	.	4.ff\)	.	4.F\)	.	.	2dd\)	.
.	4A-/ 4d 4f	.	4B-/ 4d	.	4A-/ 4f	.	.	.	.	.	.	.	.
.	.	.	.	.	.	.	8ee-\	.	8E-\	-li-	.	.	.
=68	=68	=68	=68	=68	=68	=68	=68	=68	=68	=68	=68	=68	=68
2EE-\ 2E-	4r	p	4r	.	4r	.	2ee-\	.	2E-\	-um	.	4ee-\	.
.	4G/ 4e-	.	4B-/	.	4G/ 4e-	.	.	.	.	.	.	4r	.
2r	4G/ 4e-	.	4B-/	.	4G/ 4e-	.	2r	.	2r	.	.	2r	.
.	4G/ 4e-	.	4B-/	.	4G/ 4e-	.	.	.	.	.	.	.	.
!	!	!	!	!	!	!	!	!	!LO:LB:g=original	!	!	!	!
=69	=69	=69	=69	=69	=69	=69	=69	=69	=69	=69	=69	=69	=69
!	!	!	!	!	!	!	!	!	!	!	!LO:DY:a	!LO:TX:a:t=3	!
2CC/ 2C	4r	.	4r	.	4r	.	4r	.	2G\	O	pp	1r	.
.	4G/ 4e- 4g	.	4c\	.	4G/ 4e-	.	4g/	.	.	.	.	.	.
2r	4G/ 4e- 4g	.	4c\	.	4G/ 4e-	.	4g/	.	4.G\	sa-	.	.	.
.	4G/ 4e- 4g	.	4c\	.	4G/ 4e-	.	4g/	.	.	.	.	.	.
.	.	.	.	.	.	.	.	.	8G\	-lu-	.	.	.
!	!	!	!	!	!LO:LB:g=original	!	!	!	!	!	!	!	!
=70	=70	=70	=70	=70	=70	=70	=70	=70	=70	=70	=70	=70	=70
2FF\ 2F	4r	.	4r	.	4r	.	4r	.	2c\	-ta-	.	1r	.
.	4c/ 4e- 4f	.	4c\ 4e-	.	4A-/ 4f	.	4f/	.	.	.	.	.	.
2r	4c/ 4e- 4f	.	4c\ 4e-	.	4A-/ 4f	.	4e-/	.	2A-\	-ris	.	.	.
.	4c/ 4e- 4f	.	4c\ 4e-	.	4A-/ 4f	.	4e-/	.	.	.	.	.	.
!	!	!	!	!	!	!	!LO:LB:g=original	!	!	!	!	!	!
=71	=71	=71	=71	=71	=71	=71	=71	=71	=71	=71	=71	=71	=71
2BBB-/ 2BB-	4r	.	4r	.	4r	.	4r	.	(2F\	hos-	.	1r	.
.	4A-/ 4d 4f	.	4B-/ 4d	.	4A-/ 4f	.	4d/	.	.	.	.	.	.
2r	4A-/ 4d 4f	.	4B-/ 4d	.	4A-/ 4f	.	4d/	.	4.B-\)	.	.	.	.
.	4A-/ 4d 4f	.	4B-/ 4d	.	4A-/ 4f	.	4d/	.	.	.	.	.	.
.	.	.	.	.	.	.	.	.	8B-\	-ti-	.	.	.
=72	=72	=72	=72	=72	=72	=72	=72	=72	=72	=72	=72	=72	=72
2EE-\ 2E-	4r	.	4r	.	4r	.	4r	.	2G\	-a	.	4r	.
!	!	!	!	!	!	!	!	!	!	!	!	!	!LO:DY:a
.	4G/ 4e-	.	4G/ 4e-	.	4B-/ 4g	.	4e-/	.	.	.	.	4ee-\	f
2r	4G/ 4g	.	4G/ 4e-	.	4B-/ 4g	.	4g/	.	2r	.	.	4gg\	.
.	4G/ 4e-	.	4G/ 4e-	.	4B-/ 4g	.	4e-/	.	.	.	.	4ee-\	.
!	!	!	!LO:LB:g=original	!	!	!	!	!	!	!	!	!	!
=73	=73	=73	=73	=73	=73	=73	=73	=73	=73	=73	=73	=73	=73
!	!LO:TX:a:t=dim	!	!	!	!LO:TX:a:t=dim	!	!LO:TX:a:t=dim.	!	!LO:TX:a:t=dim	!	!	!LO:TX:a:t=dim.	!LO:DY:a
1CC 1C	4r	.	4r	.	4r	.	4r	.	2G\	o	.	2een\	p
!	!	!	!LO:TX:a:t=dim	!	!	!	!	!	!	!	!	!	!
.	4G/ 4c 4en	.	4B-/	.	4c/ 4en	.	4g/	.	.	.	.	.	.
.	4G/ 4c 4e	.	4B-/	.	4c/ 4e	.	4g/	.	4.G\	sa-	.	4.ee\	.
.	4G/ 4c 4e	.	4B-/	.	4c/ 4e	.	4g/	.	.	.	.	.	.
.	.	.	.	.	.	.	.	.	8G\	-lu-	.	8ee\	.
!	!	!	!	!	!	!	!	!	!LO:LB:g=original	!	!	!LO:LB:g=original	!
=74	=74	=74	=74	=74	=74	=74	=74	=74	=74	=74	=74	=74	=74
1FF 1F	4r	.	4r	.	4r	.	4r	.	2c\	-ta-	.	(1ee-X	.
.	4An/ 4e-X 4f	.	4An/	.	4c/ 4e-X	.	4f/	.	.	.	.	.	.
.	4A/ 4e- 4f	.	4A/	.	4c/ 4e-	.	4f/	.	2c\	-ris	.	.	.
.	4A/ 4e- 4f	.	4A/	.	4c/ 4e-	.	4f/	.	.	.	.	.	.
!	!	!	!	!	!LO:LB:g=original	!	!	!	!	!	!	!	!
=75	=75	=75	=75	=75	=75	=75	=75	=75	=75	=75	=75	=75	=75
1BBB- 1BB-	4r	.	4r	.	4r	.	4r	.	(2F\	hos-	.	1dd)	.
.	4A-X/ 4d 4f	.	4B-/ 4d	.	4A-X/ 4f	.	4d/	.	.	.	.	.	.
.	4A-/ 4d 4f	.	4B-/ 4d	.	4A-/ 4f	.	4d/	.	4.B-\)	.	.	.	.
.	4A-/ 4d 4f	.	4B-/ 4d	.	4A-/ 4f	.	4d/	.	.	.	.	.	.
.	.	.	.	.	.	.	.	.	8B-\	-ti-	.	.	.
!	!	!	!	!	!	!	!LO:LB:g=original	!	!	!	!	!	!
=76	=76	=76	=76	=76	=76	=76	=76	=76	=76	=76	=76	=76	=76
2EE-\ 2E-	2G/ 2e-	.	2B-/ 2e-	.	2G/ 2e-	.	2e-/	.	2E-\	-a	.	4ee-\	.
.	.	.	.	.	.	.	.	.	.	.	.	4r	.
!	!	!LO:DY:b:t=pp.	!	!	!	!	!	!	!	!	!	!	!
2r	2r	pp	2r	.	2r	.	2r	.	2r	.	.	2r	.
=77	=77	=77	=77	=77	=77	=77	=77	=77	=77	=77	=77	=77	=77
!	!	!	!	!	!	!	!	!	!LO:TX:a:t=1	!	!	!	!LO:DY:a
2EE-\ 2E-	2G/ 2e-	.	2B-/	.	2G/ 2e-	pp	2e-/	pp	1r	.	.	2gg\	pp
2EE-\ 2E-	2B-/ 2g	.	2B-/	.	2G/ 2e-	.	2g/	.	.	.	.	4.bb-\	.
.	.	.	.	.	.	.	.	.	.	.	.	8bb-\	.
=78	=78	=78	=78	=78	=78	=78	=78	=78	=78	=78	=78	=78	=78
1EE-; 1E-	1G; 1e-	.	1B-;	.	1G; 1e-	.	1e-;	.	1r;	.	.	1gg;	.
==	==	==	==	==	==	==	==	==	==	==	==	==	==
*-	*-	*-	*-	*-	*-	*-	*-	*-	*-	*-	*-	*-	*-
!!!RDF**kern: > = above
!!!RDF**kern: < = below
!!!system-decoration: [(s1)][(s2)][(s3,s4,s5)]{(s6,s7)}
!!!ENC: Marcin Jachim
!!!END: 2020-11-08
!!!ENC: Urszula Świątek
!!!END: 2022-02-25
